!!!!SEGMENT: Fss2004-Virgo_gloriosa_Christi.krn
!!!id: Fss2004
!!!AGN: Motet
!!!voices: 4
!!!COM: Sebastiano Festa
!!!OTL: Virgo gloriosa Christi
**kern	**kern	**kern	**kern
*part4	*part3	*part2	*part1
*staff4	*staff3	*staff2	*staff1
*I"Bassus	*I"Tenor	*I"Altus	*I"Superius
*I'B	*I'T	*I'A	*I'S
*clefF4	*clefGv2	*clefGv2	*clefG2
*k[b-]	*k[b-]	*k[b-]	*k[b-]
*F:	*F:	*F:	*F:
*M2/1	*M2/1	*M2/1	*M2/1
*met(C|)	*met(C|)	*met(C|)	*met(C|)
!!section: Prima pars: Virgo gloriosa Christi
!!!OMD: Prima pars: Virgo gloriosa Christi
0r	0r	0r	0f
=1	=1	=1	=1
0r	0r	0r	1e
.	.	.	1f
=2	=2	=2	=2
0r	0r	0c	1g
.	.	.	1e
=3	=3	=3	=3
0r	0r	1B-y	4d
.	.	.	4e
.	.	.	4f
.	.	.	4g
.	.	1c	4a
.	.	.	4b-y
.	.	.	4cc
.	.	.	4a
=4	=4	=4	=4
0r	0r	1d	2b-y
.	.	.	1a
.	.	1B-y	.
.	.	.	2g
=5	=5	=5	=5
0F	0r	1.A	0a
.	.	4G	.
.	.	4F	.
=6	=6	=6	=6
1E	0c	1G	0r
1F	.	1A	.
=7	=7	=7	=7
1G	1B-y	0r	0r
1E	1c	.	.
=8	=8	=8	=8
2D	1d	0r	0r
2.G	.	.	.
.	1B-y	.	.
4F	.	.	.
4G	.	.	.
4E	.	.	.
=9	=9	=9	=9
4F	4A	0r	0r
4G	4B-y	.	.
2.A	4c	.	.
.	4d	.	.
.	2e	.	.
4G	.	.	.
4F	[2f	.	.
4E	.	.	.
=10	=10	=10	=10
4D	4f]	0r	0r
4E	4e	.	.
4F	2.d	.	.
4D	.	.	.
1E	.	.	.
.	4c#i	.	.
.	4c#i	.	.
.	8BnXiL	.	.
.	8c#iJ	.	.
=11	=11	=11	=11
0D	0d	0r	2r
.	.	.	1a
.	.	.	2f
=12	=12	=12	=12
0r	0r	2r	2g
.	.	1d	2a
.	.	.	1b-y
.	.	2B-y	.
=13	=13	=13	=13
0r	0r	2c	1a
.	.	2d	.
.	.	1e-i	1g
=14	=14	=14	=14
1D	0r	1d	0a
1F	.	1c	.
=15	=15	=15	=15
2F	0r	0d	0r
2F	.	.	.
1G	.	.	.
=16	=16	=16	=16
1.F	1A	0r	0r
.	1c	.	.
4E	.	.	.
4D	.	.	.
=17	=17	=17	=17
1E	2c	0r	0r
.	2c	.	.
2.D	1d	.	.
4E	.	.	.
=18	=18	=18	=18
4F	1.c	0r	0r
4G	.	.	.
1A	.	.	.
4G	4B-y	.	.
4F	4A	.	.
=19	=19	=19	=19
1G	1B-y	0r	1r
[1D	[1A	.	2r
.	.	.	[2a
=20	=20	=20	=20
1D]	1A]	1r	2a]
.	.	.	2f
2r	1r	2r	2g
2D	.	[2d	2a
=21	=21	=21	=21
2G	1r	2d]	1b-y
2G	.	2B-y	.
2F	1A	2c	1a
2F	.	2d	.
=22	=22	=22	=22
1C	1c	1e-i	1g
2r	2r	1d	1a
2F	2A	.	.
=23	=23	=23	=23
2F	2A	1c	1cc
2F	2A	.	.
4BB-y	2B-y	1d	2b-y
4C	.	.	.
4D	4F	.	[2a
4E	4G	.	.
=24	=24	=24	=24
2F	4A	2r	2a]
.	4B-y	.	.
2E	1c	2G	2g
1D	.	2A	2.f
.	2BnXi	2F	.
.	.	.	8eL
.	.	.	8dJ
=25	=25	=25	=25
[0C	[0c	1G	[0e
.	.	1A	.
=26	=26	=26	=26
0C;]	0c;]	0G;	0e;]
=27	=27	=27	=27
0r	0r	0r	1.cc
.	.	.	2cc
=28	=28	=28	=28
0r	0r	1r	1b-y
.	.	[1f	1a
=29	=29	=29	=29
0r	0r	2f]	1.cc
.	.	2f	.
.	.	1e	.
.	.	.	4b-y
.	.	.	4a
=30	=30	=30	=30
0r	0r	1d	2b-y
.	.	.	2b-y
.	.	[1f	[1a
=31	=31	=31	=31
0r	1r	2f]	1a]
.	.	4e	.
.	.	4d	.
.	1c	2e	1r
.	.	2e	.
=32	=32	=32	=32
1r	1B-y	0d	0r
1G	1B-y	.	.
=33	=33	=33	=33
1F	1c	0r	0r
1F	[1d	.	.
=34	=34	=34	=34
1G	2d]	0r	0r
.	4c	.	.
.	4B-y	.	.
[1A	2c	.	.
.	2c	.	.
=35	=35	=35	=35
2A]	0B-y	0r	0r
4G	.	.	.
4F	.	.	.
2G	.	.	.
2G	.	.	.
=36	=36	=36	=36
0F	0r	0r	1a
.	.	.	1a
=37	=37	=37	=37
0r	0r	1d	1b-y
.	.	1d	1a
=38	=38	=38	=38
1C	0r	1e	2g
.	.	.	2.cc
1G	.	1d	.
.	.	.	4bnXi
.	.	.	4bni
.	.	.	8aL
.	.	.	8bniJ
=39	=39	=39	=39
2.A	1F	2c	0cc
.	.	2.f	.
4A	.	.	.
2A	1c	.	.
.	.	4e	.
2A	.	4e	.
.	.	8dL	.
.	.	8eJ	.
=40	=40	=40	=40
0D	2.d	0f	1r
.	4d	.	.
.	2d	.	1a
.	2d	.	.
=41	=41	=41	=41
2r	1G	2r	1.b-y
1G	.	2d	.
.	1r	2d	.
2G	.	2e	4a
.	.	.	4g
=42	=42	=42	=42
1F	1c	1f	1a
2F	2c	2f	2a
[2G	[2B-y	[2d	[2g
=43	=43	=43	=43
2G]	2B-]	2d]	2g]
2G	2B-y	2e	2g
1F	1c	1f	1a
=44	=44	=44	=44
2r	2r	2r	2r
2F	2A	2f	2cc
1F	1A	1f	1cc
=45	=45	=45	=45
1BB-y	1B-y	1f	1dd
2r	2r	2r	2r
[2BB-y	[2B-y	[2d	[2dd
=46	=46	=46	=46
2BB-]	2B-]	2d]	2dd]
2C	2G	1c	2ee
1D	1F	.	1ff
.	.	2BnXi	.
=47	=47	=47	=47
[0C	[0G	0c	0ee
=48	=48	=48	=48
0C]	0G]	2r	2r
.	.	1c	1ee
.	.	2c	2ee
=49	=49	=49	=49
0r	0r	1d	1ff
.	.	2c	2ee
.	.	[2f	[2dd
=50	=50	=50	=50
0r	0r	4f]	2dd]
.	.	4g	.
.	.	4a	2cc
.	.	4f	.
.	.	4g	2b-y
.	.	4f	.
.	.	4e	[2cc
.	.	4d	.
=51	=51	=51	=51
0r	1r	2c	2cc]
.	.	1f	4b-y
.	.	.	4a
.	1c	.	1g
.	.	2e	.
=52	=52	=52	=52
1F	1c	0f	0a
1F	1c	.	.
=53	=53	=53	=53
1F	1A	1r	0r
1D	1d	1f	.
=54	=54	=54	=54
1G	2d	1d	0r
.	2.B-y	.	.
2G	.	2d	.
.	4A	.	.
[2E	4G	[2g	.
.	4F	.	.
=55	=55	=55	=55
4E]	1G	4g]	1r
4D	.	4f	.
4C	.	4e	.
4BB-y	.	4d	.
1C	2r	1e	1cc
.	[2c	.	.
=56	=56	=56	=56
1F	2c]	1r	1a
.	1A	.	.
1D	.	1f	2a
.	[2B-y	.	[2dd
=57	=57	=57	=57
1G	4B-]	1d	4dd]
.	4A	.	4cc
.	4B-y	.	4b-y
.	4c	.	4a
1G	1d	1g	1b-y
=58	=58	=58	=58
1C	1c	0e	1g
2r	1c	.	1cc
[2C	.	.	.
=59	=59	=59	=59
2C]	1A	1r	1cc
1F	.	.	.
.	1d	2r	1a
[2D	.	[2f	.
=60	=60	=60	=60
2D]	1B-y	2f]	1dd
1G	.	1d	.
.	2r	.	2b-y
[2C	[2e-X	[2g	[2cc
=61	=61	=61	=61
2C]	4e-]	4g]	4cc]
.	4d	4f	4b-y
2C	4c	2e	4a
.	4B-y	.	4g
2D	2A	2d	2f
2E	2G	[2c	2g
=62	=62	=62	=62
2F	2A	2c]	2c
2D	2F	2B-y	2.f
1C	1G	1c	.
.	.	.	4e
.	.	.	4e
.	.	.	8dL
.	.	.	8eJ
=63	=63	=63	=63
1c	1F	1A	1f
1r	1r	1r	1r
=64	=64	=64	=64
1.F	1.c	1.f	1.a
2F	2c	2f	2a
=65	=65	=65	=65
1F	1c	1f	1a
1G	1B-y	1d	1b-y
=66	=66	=66	=66
1F	1c	1f	1a
1G	1B-y	1e-X	1g
=67	=67	=67	=67
1D	1A	1d	1f
[1BB-y	[1d	[1f	[1b-y
=68	=68	=68	=68
1BB-]	1d]	1f]	1b-]
1BB-y	1d	1f	1b-y
=69	=69	=69	=69
1F	1c	1f	1a
2r	2r	2r	2r
2F	2f	2a	2cc
=70	=70	=70	=70
2F	2f	2a	2cc
2F	2f	2a	2cc
2F	2f	2a	2cc
2F	2f	2a	2cc
=71	=71	=71	=71
1BB-y	1f	1b-y	1dd
1F	1f	1a	1cc
=72	=72	=72	=72
[0F	[0c	0f	0a
=73	=73	=73	=73
0F]	0c]	1r	1r
.	.	1f	1a
=74	=74	=74	=74
0r	0r	1c	1cc
.	.	2d	2b-y
.	.	2d	2a
=75	=75	=75	=75
0r	0r	2e	2g
.	.	1f	1a
.	.	2e	2g
=76	=76	=76	=76
1r	1r	0f	0f
1F	1A	.	.
=77	=77	=77	=77
1C	1c	0r	0r
2D	2B-y	.	.
2D	2A	.	.
=78	=78	=78	=78
2E	2G	2r	0r
1F	1A	1c	.
2E	2G	2c	.
=79	=79	=79	=79
0F	0F	2c	2r
.	.	2c	1a
.	.	2d	.
.	.	[2f	2a
=80	=80	=80	=80
1r	0r	4f]	2a
.	.	4e	.
.	.	4d	2a
.	.	4c	.
2r	.	4d	2b-y
.	.	4B-y	.
[2F	.	[2f	[2a
=81	=81	=81	=81
2F]	0r	4f]	4a]
.	.	4e	4g
2E	.	4d	1cc
.	.	4c	.
2F	.	1d	.
2G	.	.	2bnXi
=82	=82	=82	=82
2.A	2r	0c	0cc
.	1A	.	.
4B-y	.	.	.
2c	.	.	.
[2F	2A	.	.
=83	=83	=83	=83
4F]	2A	0r	0r
4E	.	.	.
4D	2A	.	.
4C	.	.	.
4D	2B-y	.	.
4BB-y	.	.	.
[2F	[2A	.	.
=84	=84	=84	=84
4F]	4A]	1r	0r
4E	4G	.	.
4D	1c	.	.
4C	.	.	.
1D	.	1f	.
.	2BnXi	.	.
=85	=85	=85	=85
1C	1c	2e	1cc
.	.	2e	.
1r	1r	1g	2b-y
.	.	.	2b-y
=86	=86	=86	=86
0r	0r	1d	1dd
.	.	2r	1a
.	.	2f	.
=87	=87	=87	=87
0r	0r	1f	2r
.	.	.	2cc
.	.	2f	1cc
.	.	2e	.
=88	=88	=88	=88
1r	0r	2f	2cc
.	.	2d	2b-y
1F	.	1c	2cc
.	.	.	2a
=89	=89	=89	=89
2E	1c	0r	1g
2E	.	.	.
1G	2B-y	.	1r
.	2B-y	.	.
=90	=90	=90	=90
1D	1d	0r	0r
2r	1A	.	.
2F	.	.	.
=91	=91	=91	=91
1F	2r	0r	0r
.	2c	.	.
2F	1c	.	.
2E	.	.	.
=92	=92	=92	=92
2F	2c	1r	1r
2D	2B-y	.	.
1C	2c	2r	2r
.	2A	2c	2cc
=93	=93	=93	=93
2r	1G	2d	2b-y
2C	.	2e	2cc
2F	2r	1f	1a
2F	2F	.	.
=94	=94	=94	=94
1G	2B-y	2d	1g
.	2B-y	2e	.
2F	1c	1f	1a
2F	.	.	.
=95	=95	=95	=95
2G	2B-y	2d	2.g
2C	2c	2.e	.
.	.	.	4f
2E	4c	.	2g
.	4B-y	4d	.
2F	4A	[2c	[2a
.	4G	.	.
=96	=96	=96	=96
1D	1F	2c]	2a]
.	.	2BnXi	4g
.	.	.	4f
[1C	[1G	1c	1e
=97	=97	=97	=97
1C]	1G]	2r	2r
.	.	2c	2cc
2r	1r	2d	2b-y
2C	.	2e	2cc
=98	=98	=98	=98
2F	2r	1f	1a
2F	2F	.	.
1G	2B-y	2d	1g
.	2B-y	2e	.
=99	=99	=99	=99
2F	1c	1f	1a
2F	.	.	.
2G	2B-y	2d	2.g
2C	[2c	[2e	.
.	.	.	4f
=100	=100	=100	=100
2E	4c]	4e]	2g
.	4B-y	4d	.
2F	4A	1c	1a
.	4G	.	.
1D	1F	.	.
.	.	2BnXi	4g
.	.	.	4f
=101	=101	=101	=101
2C	2G	2c	4e
.	.	.	4d
2D	2F	2B-y	2.f
1C	1G	1c	.
.	.	.	4e
.	.	.	4e
.	.	.	8dL
.	.	.	8eJ
=102	=102	=102	=102
00F	00F	00c	00f
=103||	=103||	=103||	=103||
*M2/1	*M2/1	*M2/1	*M2/1
*met(C|)	*met(C|)	*met(C|)	*met(C|)
!!section: Secunda pars: Deus qui beatam Caterinam
!!!OMD: Secunda pars: Deus qui beatam Caterinam
0r	1F	0r	0r
.	1c	.	.
=104	=104	=104	=104
1r	1.A	0r	0r
1F	.	.	.
.	2B-y	.	.
=105	=105	=105	=105
1c	1c	0r	0r
[1A	1F	.	.
=106	=106	=106	=106
2A]	2r	0r	0r
2B-y	2c	.	.
1c	2c	.	.
.	2c	.	.
=107	=107	=107	=107
1F	1.A	0r	0r
2r	.	.	.
2c	2B-y	.	.
=108	=108	=108	=108
2c	1c	0r	0r
2c	.	.	.
[1A	1F	.	.
=109	=109	=109	=109
2A]	0r	0r	0r
2B-y	.	.	.
1c	.	.	.
=110	=110	=110	=110
2.F	2.A	0r	1.cc
4G	4B-y	.	.
2A	2c	.	.
2F	[2d	.	2a
=111	=111	=111	=111
2G	4d]	0r	2b-y
.	4e	.	.
2F	1f	.	2a
1G	.	.	1b-y
.	2e	.	.
=112	=112	=112	=112
0F	0f	1.c	0a
.	.	2A	.
=113	=113	=113	=113
0r	0r	2B-y	2r
.	.	2A	2a
.	.	1B-y	2f
.	.	.	2g
=114	=114	=114	=114
0r	0r	1A	1a
.	.	2r	1cc
.	.	2A	.
=115	=115	=115	=115
0r	0r	2F	2a
.	.	2G	2b-y
.	.	1A	1cc
=116	=116	=116	=116
2r	0r	1c	1a
1F	.	.	.
.	.	2A	1r
2D	.	2B-y	.
=117	=117	=117	=117
2E	2r	1c	0r
1.F	1c	.	.
.	.	1A	.
.	2A	.	.
=118	=118	=118	=118
2D	2B-y	0r	0r
2E	1.c	.	.
2.F	.	.	.
4G	.	.	.
=119	=119	=119	=119
4A	2A	0r	1r
4F	.	.	.
2G	2B-y	.	.
2F	2c	.	2.cc
[2A	[2F	.	.
.	.	.	4cc
=120	=120	=120	=120
4A]	4F]	0r	2cc
4G	4G	.	.
2.F	4A	.	2a
.	4F	.	.
.	1G	.	1b-y
4E	.	.	.
4E	.	.	.
4D	.	.	.
=121	=121	=121	=121
0F	0F	2.c	1a
.	.	4c	.
.	.	2c	2cc
.	.	2A	2cc
=122	=122	=122	=122
0r	0r	1B-y	2dd
.	.	.	2dd
.	.	1A	2.cc
.	.	.	4b-y
=123	=123	=123	=123
0r	0r	2c	2a
.	.	2c	2g
.	.	2d	1f
.	.	2d	.
=124	=124	=124	=124
2r	0r	2.c	0r
2C	.	.	.
.	.	4B-y	.
2D	.	2A	.
2E	.	2G	.
=125	=125	=125	=125
2.F	2r	1F	0r
.	2c	.	.
4E	.	.	.
2D	2d	1r	.
2C	2e	.	.
=126	=126	=126	=126
1D	2.f	2r	0r
.	.	2F	.
.	4e	.	.
1r	2d	2G	.
.	2c	2A	.
=127	=127	=127	=127
0r	1d	2.B-y	2r
.	.	.	2f
.	.	4A	.
.	1r	2G	2g
.	.	2F	2a
=128	=128	=128	=128
1r	2r	1G	2.b-y
.	2B-y	.	.
.	.	.	4a
2r	2c	1r	2g
2D	2d	.	2f
=129	=129	=129	=129
2C	2.e-i	2r	1g
2C	.	2G	.
.	4d	.	.
2F	2c	2A	1r
2G	2B-y	2G	.
=130	=130	=130	=130
2A	1c	2F	0r
2F	.	2A	.
2E	2r	2G	.
[2F	2c	[2A	.
=131	=131	=131	=131
4F]	2d	4A]	0r
4E	.	4B-y	.
2C	2e	1c	.
1D	1f	.	.
.	.	2BnXi	.
=132	=132	=132	=132
1C	1e	1c	2r
.	.	.	2g
1r	1d	1r	2a
.	.	.	2b-y
=133	=133	=133	=133
0r	2r	0r	1cc
.	2c	.	.
.	2d	.	1b-y
.	2e	.	.
=134	=134	=134	=134
0r	1f	0r	1a
.	2e	.	2g
.	[2d	.	[2f
=135	=135	=135	=135
0r	4d]	0r	4f]
.	4c	.	4e
.	1c	.	4d
.	.	.	4c
.	.	.	1d
.	2BnXi	.	.
=136	=136	=136	=136
1r	1c	1e	0c
1C	1r	[1e	.
=137	=137	=137	=137
1.C	1c	2e]	1r
.	.	2e	.
.	[1c	1e	1g
2C	.	.	.
=138	=138	=138	=138
1C	2c]	1e	1.g
.	2c	.	.
1C	1c	1r	.
.	.	.	2g
=139	=139	=139	=139
2r	1c	2r	1g
1c	.	1e	.
.	1r	.	1g
4B-y	.	4d	.
4A	.	4c	.
=140	=140	=140	=140
2B-y	2r	2d	1r
2c	2c	2e	.
2.F	1c	1f	2r
.	.	.	[2a
4G	.	.	.
=141	=141	=141	=141
4A	1c	1e	2a]
4B-y	.	.	.
4c	.	.	2a
4A	.	.	.
4B-y	[1d	1r	2f
4A	.	.	.
4G	.	.	[2b-y
4F	.	.	.
=142	=142	=142	=142
1G	2d]	1r	2b-]
.	2e	.	4a
.	.	.	4g
1F	1f	2r	1a
.	.	2c	.
=143	=143	=143	=143
0r	2.F	1c	2r
.	.	.	1a
.	4G	.	.
.	4A	1c	.
.	4B-y	.	.
.	4c	.	2a
.	4A	.	.
=144	=144	=144	=144
0r	4B-y	1.d	2f
.	4A	.	.
.	4G	.	1b-y
.	4F	.	.
.	1G	.	.
.	.	2e	4a
.	.	.	4g
=145	=145	=145	=145
2.c	1F	1f	0a
4B-y	.	.	.
4A	1r	2.F	.
4G	.	.	.
4F	.	.	.
4E	.	4G	.
=146	=146	=146	=146
2D	0r	4A	0r
.	.	4B-y	.
2C	.	4c	.
.	.	4A	.
4D	.	4B-y	.
4C	.	4A	.
[2F	.	4G	.
.	.	4F	.
=147	=147	=147	=147
4F]	0r	1G	0r
4E	.	.	.
4E	.	.	.
4D	.	.	.
1F	.	1F	.
=148	=148	=148	=148
2r	2r	2r	2r
2F	2c	2f	2a
2F	2c	2f	2a
2F	2c	2f	2a
=149	=149	=149	=149
2F	2A	2c	2a
2F	2A	2c	2a
1BB-y	1B-y	1d	1f
=150	=150	=150	=150
[0C	[0G	[0c	0e
=151	=151	=151	=151
0C]	0G]	0c]	1r
.	.	.	1g
=152	=152	=152	=152
0r	0r	1r	1a
.	.	1g	2g
.	.	.	2e
=153	=153	=153	=153
0r	1r	1a	1f
.	1c	2g	1e
.	.	2e	.
=154	=154	=154	=154
1r	1d	1f	1r
1c	2c	1e	2r
.	2A	.	2a
=155	=155	=155	=155
1d	1B-y	1r	2f
.	.	.	2g
2c	1A	2r	1a
2A	.	2c	.
=156	=156	=156	=156
1B-y	1r	1d	2f
.	.	.	2g
1A	1c	1e	1a
=157	=157	=157	=157
2r	2B-y	0f	2.d
2D	2B-y	.	.
.	.	.	4e
4D	1d	.	4f
4E	.	.	4g
4F	.	.	4a
4G	.	.	4b-y
=158	=158	=158	=158
2A	2c	1r	4cc
.	.	.	4a
1G	2.d	.	2.b-y
.	.	2r	.
.	4c	.	4a
2F	2A	2f	[2a
=159	=159	=159	=159
1G	1B-y	2d	2a]
.	.	2e	2g
2.D	2A	2.f	1a
.	[2f	.	.
4E	.	4e	.
=160	=160	=160	=160
4F	2f]	2d	0r
4G	.	.	.
1A	2e	2c	.
.	1d	1B-y	.
2G	.	.	.
=161	=161	=161	=161
*M3/1	*M3/1	*M3/1	*M3/1
*met(O3)	*met(O3)	*met(O3)	*met(O3)
0A	0c	0A	1cc
.	.	.	1cc
1r	1r	1r	1cc
=162	=162	=162	=162
1D	1d	1f	0a
1D	1d	1f	.
1D	1d	1f	1r
=163	=163	=163	=163
0G	0B-y	0d	1g
.	.	.	1g
1r	1r	1r	1g
=164	=164	=164	=164
1C	1G	1e	0cc
1C	1G	1e	.
1C	1G	1e	1r
=165	=165	=165	=165
0F	0A	0c	1cc
.	.	.	1cc
1r	1r	1r	1cc
=166	=166	=166	=166
1F	1c	1f	0a
1F	1c	1f	.
1F	1c	1f	1r
=167	=167	=167	=167
0G	0B-y	1.d	1.g
.	.	2c	2a
1G	1B-y	2d	1b-y
.	.	2e	.
=168	=168	=168	=168
1F	1c	1f	1a
1G	1B-y	1d	1b-y
1C	1c	1e	1g
=169	=169	=169	=169
1.F	1.A	0f	1a
.	.	.	1.cc
2E	2B-y	.	.
1C	1c	1e	.
.	.	.	2b-y
=170	=170	=170	=170
1D	1F	1f	1a
1E	1G	2e	1.g
.	.	2d	.
1F	1A	1c	.
.	.	.	2f
=171	=171	=171	=171
1BB-y	1B-y	1d	0f
0C	0G	0c	.
.	.	.	1e
=172	=172	=172	=172
1.D	1F	1A	0f
.	1B-y	1d	.
2E	.	.	.
1F	1A	1c	1r
=173	=173	=173	=173
2C	0c	0e	1.g
2D	.	.	.
2E	.	.	.
2F	.	.	2a
1G	1B-y	2d	1b-y
.	.	2e	.
=174	=174	=174	=174
1F	1c	1f	1a
1G	1B-y	1d	1b-y
1C	1c	1e	1g
=175	=175	=175	=175
1.F	1.A	0f	1a
.	.	.	1.cc
2E	2B-y	.	.
1C	1c	1e	.
.	.	.	2b-y
=176	=176	=176	=176
1D	1F	1f	1a
1E	1G	2e	1.g
.	.	2d	.
1F	1A	1c	.
.	.	.	2f
=177	=177	=177	=177
1BB-y	1B-y	1d	0f
0C	0G	0c	.
.	.	.	1e
=178	=178	=178	=178
00Fl	00Fl	00cl	00fl
==	==	==	==
*-	*-	*-	*-
!!!system-decoration: [*]
!!!RDF**kern: i = editorial accidental
!!!RDF**kern: l = terminal long
!!!ENC: Benjamin Ory
!!!END: 2024/4/4
!!!EED: Benjamin Ory
!!!EEV: 2024/04/04
!!!YEC: Copyright 2024 Benjamin Ory, All Rights Reserved
!!!ONB: Translated from MusicXML on 2024/04/04
